X: 757
M: 3/4
L: 1/4
K: C
EGG | GcB | AFF | F2c |\
|: e |\
dag | ecc | Fde | f2g |\
cac | BGg | BGB | c2 :|

